src/app/components/golos-ui/Icon/assets/ic_support_ru.svg

<?xml version="1.0" encoding="UTF-8"?>
<svg width="30px" height="33px" viewBox="0 0 30 33" version="1.1" xmlns="http://www.w3.org/2000/svg" xmlns:xlink="http://www.w3.org/1999/xlink">
    <!-- Generator: Sketch 51.2 (57519) - http://www.bohemiancoding.com/sketch -->
    <title>ic_support_ru</title>
    <desc>Created with Sketch.</desc>
    <defs></defs>
    <g id="FAQ" stroke="none" stroke-width="1" fill="none" fill-rule="evenodd">
        <g transform="translate(-320.000000, -1368.000000)" fill="#FFC80A" id="Group-7">
            <g transform="translate(0.000000, 1202.000000)">
                <g id="Group-22" transform="translate(299.000000, 141.000000)">
                    <g id="ic_support_ru" transform="translate(21.000000, 25.000000)">
                        <path d="M27.4345156,10.3700175 C25.9596932,4.3126403 20.8514818,0 15.0002547,0 C9.18486229,0 4.08259504,4.31116608 2.58195816,10.3670691 C1.11443856,10.6622812 0,12.0614983 0,13.7373156 L0,17.600688 C0,19.1036532 0.89688358,20.3841957 2.14022474,20.8456259 L2.14022474,22.4610002 C2.14022474,27.3111773 5.77768972,31.2580272 10.2483512,31.2580272 L11.2461151,31.2580272 C11.6447111,32.2802131 12.5781086,33 13.6641852,33 L16.3344561,33 C17.7812562,33 18.9588723,31.7224059 18.9588723,30.1523638 C18.9588723,28.5825059 17.7812562,27.3047275 16.3344561,27.3047275 L13.6641852,27.3047275 C12.578788,27.3047275 11.6447111,28.0237773 11.2467944,29.0467003 L10.2483512,29.0467003 C6.90146905,29.0467003 4.17821054,26.0925518 4.17821054,22.4610002 L4.17821054,19.9227655 C4.17821054,19.3117022 3.72238105,18.817102 3.15921764,18.817102 C2.54085878,18.817102 2.03798579,18.2716414 2.03798579,17.600688 L2.03798579,13.7373156 C2.03798579,13.0663621 2.54085878,12.5209015 3.15446234,12.5209015 L3.39528433,12.5221914 L3.40003963,12.5221914 C3.88355176,12.5221914 4.30082935,12.1528999 4.398313,11.6382135 C5.42868465,6.17549894 9.8874579,2.21132691 15.0002547,2.21132691 C20.1463387,2.21132691 24.6090181,6.17328762 25.6122166,11.6310267 C25.7076623,12.1486615 26.1256192,12.5209015 26.6118486,12.5209015 L26.840103,12.5209015 C27.4584619,12.5209015 27.9620142,13.0663621 27.9620142,13.7373156 L27.9620142,17.600688 C27.9620142,18.2716414 27.4584619,18.817102 26.840103,18.817102 C26.277619,18.817102 25.8211101,19.3117022 25.8211101,19.9227655 C25.8211101,20.533276 26.277619,21.028429 26.840103,21.028429 C28.5822412,21.028429 30,19.4902668 30,17.600688 L30,13.7373156 C30,12.0673952 28.8933737,10.6722322 27.4345156,10.3700175 Z M13.6641852,29.5160545 L16.3344561,29.5160545 C16.6574769,29.5160545 16.9208865,29.8018685 16.9208865,30.1523638 C16.9208865,30.5030434 16.6574769,30.7886731 16.3344561,30.7886731 L13.6641852,30.7886731 C13.3411645,30.7886731 13.0784341,30.5030434 13.0784341,30.1523638 C13.0784341,29.8018685 13.3411645,29.5160545 13.6641852,29.5160545 Z" id="Fill-1"></path>
                        <path d="M12.2564839,16.8292683 L11.4640034,16.8292683 L11.4640034,18.9186992 L10,18.9186992 L10,13 L12.3899543,13 C13.110142,13 13.6732146,13.155825 14.0791891,13.4674797 C14.4851636,13.7791343 14.6881478,14.2195093 14.6881478,14.7886179 C14.6881478,15.2005441 14.6026441,15.5420041 14.4316343,15.8130081 C14.2606245,16.0840122 13.9929913,16.3035222 13.6287265,16.4715447 L14.8966953,18.8577236 L14.8966953,18.9186992 L13.3284181,18.9186992 L12.2564839,16.8292683 Z M11.4640034,15.7276423 L12.3899543,15.7276423 C12.6680191,15.7276423 12.8772596,15.6565048 13.0176823,15.5142276 C13.158105,15.3719505 13.2283153,15.173443 13.2283153,14.9186992 C13.2283153,14.6639554 13.1574098,14.4640929 13.0155968,14.3191057 C12.8737838,14.1741185 12.6652384,14.101626 12.3899543,14.101626 L11.4640034,14.101626 L11.4640034,15.7276423 Z M21,13 L21,16.8739837 C21,17.3130103 20.9040691,17.6930878 20.7122045,18.0142276 C20.5203398,18.3353675 20.2450598,18.579945 19.8863564,18.7479675 C19.5276529,18.91599 19.1036105,19 18.6142166,19 C17.8745645,19 17.2920276,18.81301 16.8665886,18.4390244 C16.4411496,18.0650388 16.2242623,17.5528488 16.2159204,16.902439 L16.2159204,13 L17.6882657,13 L17.6882657,16.9308943 C17.7049496,17.578594 18.0135968,17.902439 18.6142166,17.902439 C18.9173072,17.902439 19.1467071,17.821139 19.3024234,17.6585366 C19.4581396,17.4959341 19.5359966,17.2317091 19.5359966,16.8658537 L19.5359966,13 L21,13 Z" id="RU"></path>
                    </g>
                </g>
            </g>
        </g>
    </g>
</svg>

<svg width="30" height="33" viewBox="0 0 30 33" xmlns="http://www.w3.org/2000/svg"><g fill="#FFC80A" fill-rule="evenodd"><path d="M27.435 10.37C25.96 4.313 20.85 0 15 0 9.185 0 4.083 4.311 2.582 10.367 1.114 10.662 0 12.061 0 13.737v3.864c0 1.503.897 2.783 2.14 3.245v1.615c0 4.85 3.638 8.797 8.108 8.797h.998C11.645 32.28 12.578 33 13.664 33h2.67c1.447 0 2.625-1.278 2.625-2.848 0-1.57-1.178-2.847-2.625-2.847h-2.67c-1.085 0-2.02.719-2.417 1.742h-.999c-3.347 0-6.07-2.954-6.07-6.586v-2.538c0-.611-.456-1.106-1.019-1.106-.618 0-1.121-.545-1.121-1.216v-3.864c0-.67.503-1.216 1.116-1.216l.241.001H3.4c.484 0 .9-.37.998-.884C5.428 6.175 9.888 2.211 15 2.211c5.146 0 9.609 3.962 10.612 9.42.096.518.514.89 1 .89h.228c.618 0 1.122.545 1.122 1.216v3.864c0 .67-.504 1.216-1.122 1.216-.562 0-1.019.495-1.019 1.106 0 .61.457 1.105 1.02 1.105 1.741 0 3.159-1.538 3.159-3.427v-3.864c0-1.67-1.107-3.065-2.565-3.367zm-13.77 19.146h2.67c.322 0 .586.286.586.636 0 .351-.264.637-.587.637h-2.67c-.323 0-.586-.286-.586-.637 0-.35.263-.636.586-.636z"/><path d="M12.256 16.83h-.792v2.089H10V13h2.39c.72 0 1.283.156 1.69.467.405.312.608.753.608 1.322 0 .412-.085.753-.256 1.024-.171.271-.439.49-.803.659l1.268 2.386v.06h-1.569l-1.072-2.089zm-.792-1.102h.926c.278 0 .487-.071.628-.214.14-.142.21-.34.21-.595 0-.255-.07-.455-.212-.6-.142-.145-.35-.217-.626-.217h-.926v1.626zM21 13v3.874c0 .439-.096.82-.288 1.14a1.848 1.848 0 0 1-.826.734c-.358.168-.782.252-1.272.252-.74 0-1.322-.187-1.747-.561-.426-.374-.643-.886-.651-1.537V13h1.472v3.93c.017.649.326.972.926.972.303 0 .533-.08.688-.243.156-.163.234-.427.234-.793V13H21z"/></g></svg>
